!!!OTL: ES KOMMEN DREI MAENNER VON NINIVE
!!!ARE: Europa, Mitteleuropa, Deutschland, Zwickau
!!!SCT: K2268A
!!!YEM: Copyright 1995, estate of Helmut Schaffrath.
**kern
*ICvox
*Ivox
*M2/4
*k[f#c#]
*D:
{8d
=1
16a
16a
8a
16a
16a
8b
=2
8a
8a
8f#
8r}
=3
{8.a
16b
8a
8b
=4
4a
8f#}
{8d
=5
16a
16a
8a
16a
16a
8b
=6
8a
8a
8f#
8r}
=7
{8.a
16b
8a
8b
=8
4a
8f#}
==
!!!AGN: Kinder - Lied, Reigen, Tanz - Spiel
!!!ONB: ESAC (Essen Associative Code) Database: KINDER
!!!AMT: simple duple
!!!AIN: vox
!!!EED: Helmut Schaffrath
!!!EEV: 1.0
*-
